icons/short.svg

<svg viewBox="0 0 128 128" fill="none" xmlns="http://www.w3.org/2000/svg"><path fill-rule="evenodd" clip-rule="evenodd" d="M78.0072 6.64526C89.3258 0.746699 103.34 5.04367 109.297 16.2451C115.254 27.4465 110.908 41.3042 99.5897 47.2028L90.2829 52.0954C98.3006 52.3884 105.947 56.7928 109.951 64.3223C115.908 75.5237 111.572 89.3814 100.244 95.28L50.6141 121.355C39.2955 127.253 25.2815 122.956 19.3243 111.755C13.3672 100.554 17.713 86.6958 29.0316 80.7972L38.3384 75.9045C30.3207 75.6116 22.674 71.2072 18.67 63.6777C12.7129 52.4763 17.0587 38.6186 28.3773 32.72L78.0072 6.64526V6.64526ZM51.2195 45.5328L81.2592 64.0781L51.2195 82.5355V45.5328Z" fill="#F40407"/></svg>

<svg viewBox="0 0 128 128" fill="none" xmlns="http://www.w3.org/2000/svg">
    <path fill-rule="evenodd" clip-rule="evenodd"
        d="M78.007 6.645c11.319-5.898 25.333-1.601 31.29 9.6 5.957 11.201 1.611 25.06-9.707 30.958l-9.307 4.892c8.018.293 15.664 4.698 19.668 12.227 5.957 11.202 1.621 25.06-9.707 30.958l-49.63 26.075c-11.319 5.898-25.332 1.601-31.29-9.6-5.957-11.201-1.611-25.06 9.708-30.958l9.306-4.892c-8.017-.293-15.664-4.698-19.668-12.227-5.957-11.202-1.611-25.06 9.707-30.958l49.63-26.075zM51.22 45.533l30.04 18.545-30.04 18.457V45.533z"
        fill="#F40407" />
</svg>
